X: 101
T: Plesere Abertwe
R:double jig
O:traditional welsh
M:6/8
L:1/8
Q:3/8=120
K:D
DBA AFD|GBA AFD|~D3 dcB|BAF A2F|
DBA AFD|G~G2 AFD|BEE Bed|cAc d2f:||
fed fed|cBA A2c|dcB dcB|{B}^A2F F2z|
EAG FBA|Gcd A2F|EDE DFA|Bec d2d:||
K:G
c2c ABc|BAG GED|GFG AGA|Bdc A2c|
BAG BAG|cBA cBA|dBG EDc|BcA G2d:||
K:D
d2~d afd|g2~g afd|d2~d dcB|BAF A2F|
DBA AFD|GBA AFD|BEE BED|cAc d2d||
